X:1
T:Worthy Is the Lamb!
T:Worthy Is the Lamb!
T:William Paton Mackay
T:William Paton Mackay (1839-1885)
T:Public Domain Courtesy of the Cyber Hymnal™
C:William Paton Mackay
Z:Public Domain
Z:Courtesy of the Cyber Hymnal™
%%score ( 1 2 ) ( 3 4 )
L:1/8
Q:1/4=97
M:4/4
K:D
V:1 treble 
V:2 treble 
V:3 bass 
V:4 bass 
V:1
 [Fd][Fd][Fd][Fd] [Ac][GB][FA] z | [GB][GB][GB][GB] [DA][CG] [DF]2 | %2
w: 1.~Worth- y, worth- y is the Lamb!|Worth- y, worth- y is the Lamb!|
w: 2.~We the crown of life shall wear,|We the palm of vic- tory bear,|
w: 3.~And when land- ed safe a- bove,|In the king- dom of His love,|
w: 4.~Now re- vive Thy work, O Lord,|By Thy Spir- it and Thy Word;|
w: 5.~Strike the stout- est sin- ner through,|Start the cry, “What must I do?”|
 [Fd][Fd][Fd][Fd] [Ac][GB][FA] z | [GB]2 [Ec]2 [Fd]4 ||"^Refrain" [FA]>[EG] [DF]>[Fd] [GB]2 [FA]2 | %5
w: Worth- y, worth- y is the Lamb|That was slain!||
w: All our Fa- ther’s bless- ings share|In the Lamb.||
w: We shall all the full- ness prove|Of the Lamb.|Praise Him, hal- le- lu- jah!|
w: Now re- vive Thy work, O Lord,|Through the Lamb.||
w: Make him weep till born a- new|Through the Lamb.||
 [EG]FE[CA] [EG]2 [DF]2 | [FA]>[EG] [DF]>[Fd] [GB]2 [FA]2 | [GB]2 [Ec]2 [Fd]4 |] %8
w: |||
w: |||
w: Praise Him, hal- le- lu- jah!|Praise Him, hal- le- lu- jah!|Praise the Lamb!|
w: |||
w: |||
V:2
 x8 | x8 | x8 | x8 || x8 | x FE x5 | x8 | x8 |] %8
V:3
 [D,A,][D,A,][D,A,][D,A,] [D,A,][D,D][D,D] z | [G,D][G,D][G,D][G,D] [F,A,][E,A,] [D,A,]2 | %2
 [D,A,][D,A,][D,A,][D,A,] [D,A,][D,D][D,D] z | [G,D]2 A,2 [D,A,]4 || %4
 [D,A,]>[D,A,] [D,A,]>[D,A,] [D,D]2 [D,D]2 | [A,C][A,C][A,,A,][A,,A,] [D,A,]2 [D,A,]2 | %6
 [D,A,]>[D,A,] [D,A,]>[D,A,] [D,D]2 [D,D]2 | [G,D]2 A,2 [D,A,]4 |] %8
V:4
 x8 | x8 | x8 | x2 A,2 x4 || x8 | x8 | x8 | x2 A,2 x4 |] %8

